X:1
T:[ID 2-14]
T:[ID 2-14]
T:Bezeichnung standardisiert: Anglaise Angl.
T:Urheber unbekannt Datum in der hier transkribierten schriftlichen Quelle: 1767
C:Urheber unbekannt
C:Datum in der hier transkribierten schriftlichen Quelle: 1767
L:1/8
M:none
K:C
V:1 treble 
V:1
 cc/B/!p! cA | GFEc | DFEG | GF E2 |!f! cc/B/cA | GFEc | B/c/d/e/f/d/c/B/ | c2 c2 :: G,2 GG | %9
 G,2 AA!f! | Bdfe | dB G2 |!p! cc/B/cA | GFEc | B/c/d/e/f/d/c/B/ | c2 c2 :: %16
[K:F]"^Trio" !fermata!Ac!p! Tc2 | ac Tc2 | f/e/d/c/B/A/G/F/ | EG C2 | fcdB | cABG | AFGE | F2 F2 :: %24
!p!"^Z" Accc | cBBB | AFEF | EG C2 | a2 g2 |"^Cal" f2 d2 | cBAG | F2 F2 :| %32

